X:1
T:Krakovienne
T:Mazurka
T:No.4 from Suite Polonaise No.1, Op.23
T:Felix Blumenfeld (1863-1931) 
C:Felix Blumenfeld (1863-1931)
%%score { ( 1 3 ) | ( 2 4 ) }
L:1/8
Q:1/4=240
M:3/4
K:Eb
V:1 treble nm="Piano"
V:3 treble 
V:2 bass 
V:4 bass 
V:1
"^Allegro giocoso e energico" z6 | z6 | (B,F) F2 !>!F2 | (FG){EF} (!>!E2 DC) | (B,F) F2 (FG | %5
 E2) !>!B4 | (B,F) F2 !>!F2 | (FG){EF} (!>!E2 DC) | (B,F) F2 (FG | E2) !>!e4- |!p! e6- | e6- | %12
 e2 e4- | e4 !>!e2 | e6- | e6- |!<(!"_cresc." e2 e4 | BF B4!<)! |!f! (Bf) f2 !>!f2 | %19
 (fg){ef} (!>!e2 dc) | (Bf) f2 (fg | e2) !>!b4 | (B[fb])[fb](f[bf']c') | ([bf']g'e')e([gd']c') | %24
 (B[fb])[fb]f([c'f']b) | ([ee']2!8va(! .[e'e'']2)!8va)!!mp! (e2 | _f>)(e _d2 _cB | _c>)(B A2 _GA | %28
 B_c _d2 =d2 | e>a _g3)!p! (e | _f>e _d2 _cB | _c>B (3ABA _G_F | E>=F =GAB{/_d}_c | %33
 B>E A2) z"_ben pronunciato" e | z2 (_f_gab | a>_d _fe_g_c | _d>e _f_gba | _g>_c' e'_f' _g') z | %38
 (_f>_g abe{/g}f |"_poco cresc." e>=g a_ce_d | _c>_d B_fea) |!mf!!<(! ([B=g]>[A=d] [=Ge]2) z B | %42
 ([Bg]>[Ad] [Ge]2) z b | ([bg']>[ad'] [ge']) z/!<)!!f!!8va(! (e'/ e''e'!8va)! | e'e) (e'e eE-) | %45
!mp! !>![Ee]6- | [Ee]6- | [Ee]6 |!mf!!>(! [EBe]!>)!!mp! z/!f! (E/ e)(e e')(e' | %49
!8va(! e''e')!8va)! (e'e) z2 |!mp! !>!e'6- | e'6- |"_dim." e'6 | %53
!p! .[fb]z/b/"_m.g.\n"!8va(! b'/_c''/b'!8va)! b/_c'/b | B/_c/B B,/_C/B, z2 |!f! (Bf) f2 !>!f2 | %56
 (fg){ef} (!>!e2 dc) | (Bf) f2 (fg | e2) !>!b4 | (B[fb])[fb](f[bf']c') | ([bf']g'e')e([gd']c') | %61
 (B[fb])[fb]f([c'f']b) |!<(! e[be'] [be'](e'!<)!!ff!!8va(! .e''2)!8va)! |!p! (3(B_d_c (3BcB (3ABE | %64
 (3B_d_c (3BcB (3ABe | (3ab_d' (3_c'd'c' (3bac' | (3b_c'b (3age!<(! (3b!8va(!e'!<)!!mf!e'')!8va)! | %67
!p! (3(B_d_c (3BcB (3ABE | (3B_d_c (3BcB (3ABe |"_cresc." (3ab_d' (3_c'd'c' (3bac' | %70
!mf!!<(! (3bf'b')!<)!!f!!8va(! (3(!>!f''f') z!8va)! (3(!>!b'b) z | %71
 (3(!>!f'f) z (3(!>!bB) z (3(!>!fF) z | (3(!>!BB,) z (3(!>!FF,) z z2 | %73
[I:staff +1] (3F,B,[I:staff -1]F z2!8va(! !>![b'b'']!8va)! z |!ff! (Bf) f2 !>![bb'] z | %75
 (fg){ef} !>!e2 !>![bb'] z | (Bf) f2 !>![bb'] z | e2 x2 !>![bb'] z |!f! (3(Bbf (3bfc' (3bf'c' | %79
 (3f'bg' (3c'e'b (3d'gc' |"_cresc." (3Bbf (3bfc' (3bf'c' | (3f'bg'!8va(! (3f'c''b' (3f''b'c'') | %82
!ff! (3(f'c''f' (3b'!8va)!c'f' (3bc'f | (3c'fb (3cfB (3cFc | (3FBC (3FB,c"_dim." (3FBC | %85
 (3FB,c (3FBC (3FB,c |!mf!!>(! (3FBC (3FB,B (3CFB, | (3BCF (3B,BC (3FB,)G!>)! | %88
!p! z2 !tenuto![B,B]4 | z2 B4 | z2 [B,B]4 | z2 [B,B]4 | z2 !tenuto![Bb]4 | z2 b4 | z2 [Bb]4 | %95
 f>c' b3 g | f>c' b3 g | fc'bg fc' |bg fc'bg |!f! fc'bg"_m.g." fg' |f'c'"_m.g." b!8va(!c''b'g' | %101
"_m.g." f'g''!ff! (!>!f''c''b'g'!8va)! |f'c'bgfc |BGFCB,G, | %104
[I:staff +1]F,C,B,,G,,F,,)[I:staff -1] z | z2 z2"_m.d."[I:staff +1] !>!E2 | %106
!fff!!8va(![I:staff -1] !^![e'e'']6!8va)! |] %107
V:2
!f! (!tenuto![E,,B,,]4 .[E,,B,,]2) | (!tenuto![E,,B,,]4 .[E,,B,,]2) | %2
 (!tenuto![E,,B,,]4 .[E,,B,,]2) | (!tenuto![E,,B,,]4 .[E,,B,,]2) | (!tenuto![E,,B,,]4 .[E,,B,,]2) | %5
 (!tenuto![E,,B,,]4 .[E,,B,,]2) | (!tenuto![E,,B,,]4 .[E,,B,,]2) | (!tenuto![E,,B,,]4 .[E,,B,,]2) | %8
 (!tenuto![E,,B,,]4 .[E,,B,,]2) | [E,,B,,]4 E,2 | ([A,,E,]2 .[E,_CE]2) [CE]2 | %11
 ([A,,E,]2 .[E,_CE]2) [CE]2 | ([A,,F,]2 .[F,_CE]2) [CE]2 | ([E,,B,,=G,]2 .[G,B,]2) [G,B,E]2 | %14
 ([A,,E,]2 .[E,_CE]2) [CE]2 | ([A,,E,]2 .[E,_CE]2) [CE]2 | ([A,,F,]2 .[F,_CE]2) [CE]2 | %17
 [B,,F,B,=D]2 z (B, !>!B,,2) | [E,,B,,]3 (B, B,,2) | [E,,B,,]3 (B, B,,2) | [E,,B,,]3 (B, B,,2) | %21
 [E,,B,,]3 (B, B,,2) | E,2 [B,DA]2 [B,DA]2 | E,2 [B,EG]2 [B,EG]2 | E,2 [B,DA]2 [B,DA]2 | %25
 ([E,B,G]2[K:treble] .[Beg]2) z2 |[K:bass] _D,2 [A,_D_F]2 z2 | _G,,2 [E,_CE]2 z2 | %28
 _G,,2 [_D,_G,B,]2 [G,B,_F]2 | _C,2 [_G,_CE]2 z2 | _D,2 [A,_D_F]2 z2 | E,2 [A,_CE]2 E, z | x2 _D4 | %33
 (_D2 _C2) A,,2 | (_D,2 [A,_F]2) z2 | _G,,2 [E,_C]2 [CE]2 | _G,,2 [B,_F]2 z2 | %37
 _C,2[K:treble] [_G,E]2 [E_c]2 |[K:bass] _D,2 [A,_F]2 z2 | E,2 [_CE]2 z2 | %40
 E,,2 [E,_D]2 [A,,E,_C]2 | ([B,,A,=D]2 [E,B,])z/(B,/ .B2) | %42
 ([B,,A,=D]2 [E,B,])z/[K:treble](B/ .b2) | ([B,A=d]2 .[EB]) z z2 | z6 | %45
[K:bass] A,,2 [E,_C]2 [E,C]2 | A,,2 [E,_C]2 [E,C]2 | A,,2 [F,_C]2 [F,C]2 | [E,,B,,G,] z z2 z2 | %49
 z2 z2[K:treble] (eE) | [A,E]2 [E_c]2 [ce]2 | [A,E]2 [E_c]2 [ce]2 | [A,F]2 [F_c]2 [ce]2 | %53
 [B,FBd] z!8va(!"^cresc."[I:staff -1] !>!b'/[I:staff +1] x3/2!8va)![I:staff -1] !>!b/[I:staff +1] x3/2 | %54
[I:staff -1] !>!B/[I:staff +1] x3/2[I:staff -1] !>!B,/[I:staff +1] x3/2[K:bass] !>!B,, z | %55
 [E,,B,,]3 (B, B,,2) | [E,,B,,]3 (B, B,,2) | [E,,B,,]3 (B, B,,2) | [E,,B,,]3 (B, B,,2) | %59
 E,2 [B,DA]2 [B,DA]2 | E,2 [B,EG]2 [B,EG]2 | E,2 [B,DA]2 [B,DA]2 | %62
 E,2 [B,EG]2[K:treble] !>![Beg]2 |[K:bass] A,,2 [E,_C]2 [CE]2 | A,,2 [E,_C]2 [CE]2 | %65
 A,,2 [E,_C]2 [F,CE]2 | E,,2 [B,,G,]2 [G,E]2 | A,,2 [E,_C]2 [CE]2 | A,,2 [E,_C]2 [CE]2 | %69
 A,,2 [E,_C]2 [F,CE]2 | %70
 .[B,,F,D]2!8va(! (3:2:2x2[I:staff -1] b!8va)![I:staff +1] (3:2:2x2[I:staff -1] f | %71
[I:staff +1] (3:2:2x2[I:staff -1] B[I:staff +1] (3:2:2x2[I:staff -1] F[I:staff +1] (3:2:2x2[I:staff -1] B, | %72
[I:staff +1] (3:2:2x2 F, (3:2:2x2 B,, (3B,,,F,,B,, | z2[I:staff -1] (3Bfb[I:staff +1] z2 | %74
 [E,,B,,]2[K:treble] (3B,FB[I:staff -1] !>!f2 | %75
[I:staff +1][K:bass] [E,,B,,]2[K:treble] (3B,FB[I:staff -1] (dc) | %76
[I:staff +1][K:bass] [E,,B,,]2[K:treble] (3B,FB[I:staff -1] (fg) | %77
[I:staff +1][K:bass] [E,,B,,]2 (3B,EB z2 | E,2 [B,D]2 [B,DA]2 | E,2 [B,EG]2 [B,EG]2 | %80
 E,2 [B,DA]2 [DA]2 |[K:treble] [Ad]2 !>![da]2 z2 |[K:bass] z6 | z6 | z6 | z6 | z6 | z6 | %88
 z2 [E,,B,,F,]4 | z2 [E,,B,,G,]4 | z2 [E,,B,,A,]4 | z2 [E,,B,,G,]4 | z2 [E,B,F]4 | z2 [E,B,G]4 | %94
 z2 [E,B,A]4 | z2 z2 [E,B,A]2 | z2 z2 [E,B,A]2 | z2 [E,B,A]2 z2 | [E,B,DA]2 z2 [E,B,DA]2 | %99
 [E,B,DA]2 z2 z2 | z6 | z6 | z6 | z6 | z2 z2 z (B,,, | !>!E,,,2) z2 .[E,,B,,G,]2 | %106
[K:treble] !^![GBeg]6 |] %107
V:3
 x6 | x6 | [F,B,]6 | [G,B,]6 | [F,B,]6 | [G,B,]6 | [F,B,]6 | [G,B,]6 | [F,B,]6 | [G,B,]6 | %10
 (B_d{_cd} !>!c2 BA) | (B_d{_cd} !>!c2 BA) | (B_d{_cd} cBAc | BA=GE e2) | (B_d{_cd} !>!c2 BA) | %15
 (B_d{_cd} !>!c2 BA) | B_d{_cd} cBAc | x6 | [FB]6 | [GB]6 | [FB]6 | [GB]2 z2 z2 | x6 | x6 | x6 | %25
 x2!8va(! x2!8va)! x2 | x6 | x6 | x6 | x6 | x6 | x6 | x6 | x6 | _f>e _d2 _cB | _c>B A2 _GA | %36
 B>_c _d2 =d2 | e>a _g3 (e | _f>e _d2 _cB | _c>B A2 _G_F | E>=F =GAB_c) | x6 | x6 | %43
 x7/2!8va(! x5/2!8va)! | x6 | (B_d{_cd} !>!c2 BA) | (B_d{_cd} !>!c2 BA) | %47
 (B>_d!<(!{_cd} cBAc)!<)! | x6 |!8va(! x2!8va)! x4 | (b_d'{_c'd'} !>!c'2 ba) | %51
 (b_d'{_c'd'} !>!c'2 ba) | b>_d'{_c'd'} c'bac' | x2!8va(! x2!8va)! x2 | x6 | [FB]6 | [GB]6 | %57
 [FB]6 | [GB]2 z2 z2 | x6 | x6 | x6 | x4!8va(! x2!8va)! | x6 | x6 | x6 | x14/3!8va(! x4/3!8va)! | %67
 x6 | x6 | x6 | x2!8va(! x2!8va)! x2 | x6 | x6 | x4!8va(! x!8va)! x | [FB]6 | [GB]6 | [FB]6 | %77
 G2 !>!b4 | x6 | x6 | x6 | x2!8va(! x4 | x8/3!8va)! x10/3 | x6 | x6 | x6 | x6 | x6 | A>G F2 ED | %89
{EF} Ez/(D/ C2 B,C | DE F2 ^F2 | G>c B2) z g | a>g f2 ed |{ef} ez/d/ c2 Bc | de f2 g2 | z2 z2 B2 | %96
 z2 z2"_cresc." B2 | z2 B2 z2 | B2 z2 B2 | B2 z2 f x | x2 b!8va(! x3 | f' x5!8va)! | x6 | x6 | x6 | %105
 x6 |!8va(! x6!8va)! |] %107
V:4
 x6 | x6 | x6 | x6 | x6 | x6 | x6 | x6 | x6 | x6 | x6 | x6 | x6 | x6 | x6 | x6 | x6 | x6 | x6 | %19
 x6 | x6 | x6 | x6 | x6 | x6 | x2[K:treble] x4 |[K:bass] x6 | x6 | x6 | x6 | x6 | x4 (E,2 | %32
 .E,,2) (E,F,G,A, | G,>E, A,2) x2 | x6 | x6 | x6 | x2[K:treble] x4 |[K:bass] x6 | x6 | x6 | x6 | %42
 x7/2[K:treble] x5/2 | x6 | x6 |[K:bass] x6 | x6 | x6 | x6 | x4[K:treble] x2 | x6 | x6 | x6 | %53
 x2!8va(! x2!8va)! x2 | x4[K:bass] x2 | x6 | x6 | x6 | x6 | x6 | x6 | x6 | x4[K:treble] x2 | %63
[K:bass] x6 | x6 | x6 | x6 | x6 | x6 | x6 | x2!8va(! x2!8va)! x2 | x6 | x6 | x6 | x2[K:treble] x4 | %75
[K:bass] x2[K:treble] x4 |[K:bass] x2[K:treble] x4 |[K:bass] x6 | x6 | x6 | x6 |[K:treble] x6 | %82
[K:bass] x6 | x6 | x6 | x6 | x6 | x6 | x6 | x6 | x6 | x6 | x6 | x6 | x6 | x6 | x6 | x6 | x6 | x6 | %100
 x6 | x6 | x6 | x6 | x6 | x6 |[K:treble] x6 |] %107

